X: 391
T: A Thousand Farewells
R: slide
M: 12/8
K: Dmajor
|:dAF ~e3 dBA A2 D|~F3 BAF dAF EFA|
dAF ~e3 dBA A2 D|~F3 BAF ~E3 DFA:|
|:d2 d ~f3 afd edB|~A3 ecA BAF DFA|
d2 d ~f3 afd edB|~A3 AFA B/c/dc dFA:|

